public/brands/ubuntu.svg

<svg width="758" height="171" viewBox="0 0 758 171" xmlns="http://www.w3.org/2000/svg"><title>ubuntu</title><g fill="none" fill-rule="evenodd"><ellipse fill="#DD4814" cx="712.199" cy="45.326" rx="45.326" ry="45.326"/><path d="M681.379 39.273a6.052 6.052 0 1 0 0 12.104 6.053 6.053 0 0 0 0-12.104zm43.207 27.504a6.048 6.048 0 0 0-2.215 8.264 6.048 6.048 0 0 0 8.265 2.215 6.047 6.047 0 0 0 2.215-8.264 6.053 6.053 0 0 0-8.265-2.215zm-30.062-21.451c0-5.98 2.971-11.264 7.516-14.463l-4.424-7.41c-5.295 3.539-9.233 8.947-10.871 15.281a8.49 8.49 0 0 1 3.133 6.592 8.488 8.488 0 0 1-3.133 6.59c1.636 6.336 5.574 11.744 10.871 15.283l4.424-7.412c-4.546-3.197-7.516-8.48-7.516-14.461zm17.675-17.678c9.234 0 16.812 7.08 17.605 16.109l8.623-.127c-.425-6.666-3.337-12.65-7.812-17.051a8.488 8.488 0 0 1-7.256-.588 8.475 8.475 0 0 1-4.139-6 26.365 26.365 0 0 0-7.023-.955c-4.184 0-8.139.982-11.65 2.721l4.205 7.535a17.629 17.629 0 0 1 7.447-1.644zm0 35.354c-2.66 0-5.184-.592-7.445-1.645l-4.204 7.535a26.274 26.274 0 0 0 18.672 1.766 8.479 8.479 0 0 1 4.139-6 8.482 8.482 0 0 1 7.256-.588c4.476-4.4 7.387-10.385 7.812-17.051l-8.625-.127c-.794 9.032-8.37 16.11-17.605 16.11zm12.385-39.131a6.047 6.047 0 0 0 8.265-2.213 6.049 6.049 0 1 0-10.48-6.049 6.05 6.05 0 0 0 2.215 8.262zM90.823 164.257c-4.605 1.153-10.684 2.375-18.237 3.669-7.556 1.297-16.296 1.942-26.226 1.942-8.633 0-15.9-1.261-21.799-3.774-5.902-2.517-10.65-6.08-14.245-10.686-3.599-4.604-6.188-10.037-7.77-16.297C.961 132.853.172 125.914.172 118.285V55.262h20.072v58.707c0 13.672 2.158 23.455 6.477 29.354 4.316 5.902 11.581 8.851 21.799 8.851 2.158 0 4.387-.071 6.691-.218 2.3-.141 4.458-.323 6.475-.539 2.013-.216 3.848-.432 5.504-.646 1.652-.215 2.839-.465 3.562-.754V55.262h20.072l-.001 108.995zM139.817 60.225c2.445-1.581 6.151-3.237 11.115-4.963 4.964-1.728 10.684-2.59 17.159-2.59 8.057 0 15.216 1.438 21.476 4.315 6.259 2.88 11.547 6.907 15.863 12.088 4.317 5.18 7.588 11.368 9.821 18.562 2.229 7.196 3.346 15.107 3.346 23.74 0 9.066-1.333 17.234-3.993 24.5-2.664 7.266-6.44 13.417-11.332 18.452-4.894 5.039-10.792 8.923-17.698 11.655-6.906 2.731-14.677 4.101-23.311 4.101-9.355 0-17.627-.646-24.821-1.942-7.196-1.295-13.095-2.588-17.698-3.885V3.459L139.817.007v60.218zm0 89.789c2.014.575 4.856 1.114 8.526 1.616 3.669.507 8.234.757 13.705.757 10.792 0 19.425-3.562 25.899-10.684 6.476-7.124 9.713-17.23 9.713-30.327 0-5.751-.576-11.147-1.727-16.187-1.153-5.035-3.021-9.388-5.611-13.058s-5.936-6.547-10.037-8.635c-4.101-2.084-9.031-3.129-14.784-3.129-5.471 0-10.506.938-15.108 2.806-4.607 1.872-8.131 3.815-10.576 5.827v71.014zM330.613 164.257c-4.606 1.153-10.684 2.375-18.237 3.669-7.556 1.297-16.296 1.942-26.225 1.942-8.634 0-15.9-1.261-21.8-3.774-5.902-2.517-10.65-6.08-14.245-10.686-3.599-4.604-6.188-10.037-7.77-16.297-1.585-6.26-2.375-13.198-2.375-20.827V55.262h20.072v58.707c0 13.672 2.158 23.455 6.476 29.354 4.315 5.902 11.581 8.851 21.799 8.851 2.158 0 4.388-.071 6.691-.218 2.3-.141 4.458-.323 6.475-.539 2.013-.216 3.848-.432 5.504-.646 1.652-.215 2.84-.465 3.562-.754V55.262h20.072l.001 108.995zM359.531 58.499c4.604-1.151 10.718-2.375 18.348-3.671 7.625-1.294 16.401-1.941 26.329-1.941 8.922 0 16.33 1.261 22.232 3.776 5.897 2.52 10.609 6.043 14.137 10.576 3.523 4.533 6.006 9.967 7.447 16.296 1.436 6.333 2.158 13.312 2.158 20.938v63.022h-20.074v-58.708c0-6.905-.469-12.803-1.402-17.697-.938-4.89-2.479-8.849-4.641-11.87-2.158-3.023-5.037-5.216-8.633-6.584-3.601-1.367-8.062-2.051-13.381-2.051-2.16 0-4.394.074-6.691.216-2.304.145-4.499.325-6.583.541a82.61 82.61 0 0 0-5.61.755c-1.656.29-2.845.506-3.562.646v94.751h-20.073V58.499h-.001zM496.585 55.262h42.521v16.835h-42.521v51.799c0 5.61.431 10.252 1.295 13.92.863 3.672 2.158 6.55 3.886 8.635 1.727 2.088 3.885 3.562 6.475 4.425s5.611 1.296 9.064 1.296c6.186 0 11.08-.682 14.678-2.051 3.594-1.366 6.043-2.337 7.338-2.913l4.316 16.403c-2.017 1.008-5.578 2.304-10.685 3.884-5.108 1.582-10.897 2.374-17.375 2.374-7.627 0-13.92-.971-18.885-2.913-4.965-1.942-8.957-4.856-11.979-8.741-3.021-3.886-5.146-8.668-6.366-14.354-1.226-5.682-1.836-12.264-1.836-19.748V23.965l20.073-3.453.001 34.75zM648.316 164.257c-4.607 1.153-10.686 2.375-18.238 3.669-7.555 1.297-16.295 1.942-26.225 1.942-8.633 0-15.9-1.261-21.799-3.774-5.902-2.517-10.65-6.08-14.246-10.686-3.599-4.604-6.188-10.037-7.771-16.297-1.586-6.26-2.375-13.198-2.375-20.827V55.262h20.074v58.707c0 13.672 2.158 23.455 6.475 29.354 4.316 5.902 11.58 8.851 21.8 8.851 2.157 0 4.387-.071 6.69-.218 2.299-.141 4.459-.323 6.476-.539 2.014-.216 3.848-.432 5.504-.646 1.651-.215 2.84-.465 3.561-.754V55.262h20.074v108.995z" fill="#FFF"/></g></svg>

<?xml version="1.0" encoding="UTF-8"?>
<svg width="758px" height="171px" viewBox="0 0 758 171" version="1.1" xmlns="http://www.w3.org/2000/svg" xmlns:xlink="http://www.w3.org/1999/xlink">
    <!-- Generator: Sketch 40.3 (33839) - http://www.bohemiancoding.com/sketch -->
    <title>ubuntu</title>
    <desc>Created with Sketch.</desc>
    <defs></defs>
    <g id="Page-1" stroke="none" stroke-width="1" fill="none" fill-rule="evenodd">
        <g id="ubuntu">
            <g id="Group">
                <ellipse id="Oval" fill="#DD4814" cx="712.199" cy="45.326" rx="45.326" ry="45.326"></ellipse>
                <path d="M681.379,39.273 C678.035,39.273 675.326,41.982 675.326,45.326 C675.326,48.668 678.035,51.377 681.379,51.377 C684.722,51.377 687.431,48.668 687.431,45.326 C687.43,41.982 684.721,39.273 681.379,39.273 L681.379,39.273 Z M724.586,66.777 C721.691,68.449 720.699,72.148 722.371,75.041 C724.041,77.936 727.74,78.928 730.636,77.256 C733.531,75.586 734.523,71.887 732.851,68.992 C731.18,66.1 727.479,65.107 724.586,66.777 L724.586,66.777 Z M694.524,45.326 C694.524,39.346 697.495,34.062 702.04,30.863 L697.616,23.453 C692.321,26.992 688.383,32.4 686.745,38.734 C688.655,40.293 689.878,42.666 689.878,45.326 C689.878,47.984 688.655,50.357 686.745,51.916 C688.381,58.252 692.319,63.66 697.616,67.199 L702.04,59.787 C697.494,56.59 694.524,51.307 694.524,45.326 L694.524,45.326 Z M712.199,27.648 C721.433,27.648 729.011,34.728 729.804,43.757 L738.427,43.63 C738.002,36.964 735.09,30.98 730.615,26.579 C728.314,27.448 725.656,27.315 723.359,25.991 C721.058,24.663 719.615,22.423 719.22,19.991 C716.984,19.374 714.63,19.036 712.197,19.036 C708.013,19.036 704.058,20.018 700.547,21.757 L704.752,29.292 C707.016,28.24 709.539,27.648 712.199,27.648 L712.199,27.648 Z M712.199,63.002 C709.539,63.002 707.015,62.41 704.754,61.357 L700.55,68.892 C704.062,70.632 708.017,71.615 712.199,71.615 C714.634,71.615 716.986,71.277 719.222,70.658 C719.617,68.226 721.06,65.988 723.361,64.658 C725.66,63.332 728.316,63.201 730.617,64.07 C735.093,59.67 738.004,53.685 738.429,47.019 L729.804,46.892 C729.01,55.924 721.434,63.002 712.199,63.002 L712.199,63.002 Z M724.584,23.871 C727.48,25.543 731.179,24.553 732.849,21.658 C734.521,18.763 733.531,15.064 730.636,13.392 C727.74,11.722 724.041,12.714 722.369,15.609 C720.699,18.502 721.692,22.201 724.584,23.871 L724.584,23.871 Z" id="Shape" fill="#FFFFFF"></path>
                <path d="M90.823,164.257 C86.218,165.41 80.139,166.632 72.586,167.926 C65.03,169.223 56.29,169.868 46.36,169.868 C37.727,169.868 30.46,168.607 24.561,166.094 C18.659,163.577 13.911,160.014 10.316,155.408 C6.717,150.804 4.128,145.371 2.546,139.111 C0.961,132.853 0.172,125.914 0.172,118.285 L0.172,55.262 L20.244,55.262 L20.244,113.969 C20.244,127.641 22.402,137.424 26.721,143.323 C31.037,149.225 38.302,152.174 48.52,152.174 C50.678,152.174 52.907,152.103 55.211,151.956 C57.511,151.815 59.669,151.633 61.686,151.417 C63.699,151.201 65.534,150.985 67.19,150.771 C68.842,150.556 70.029,150.306 70.752,150.017 L70.752,55.262 L90.824,55.262 L90.823,164.257 L90.823,164.257 L90.823,164.257 Z" id="Shape" fill="#FFFFFF"></path>
                <path d="M139.817,60.225 C142.262,58.644 145.968,56.988 150.932,55.262 C155.896,53.534 161.616,52.672 168.091,52.672 C176.148,52.672 183.307,54.11 189.567,56.987 C195.826,59.867 201.114,63.894 205.43,69.075 C209.747,74.255 213.018,80.443 215.251,87.637 C217.48,94.833 218.597,102.744 218.597,111.377 C218.597,120.443 217.264,128.611 214.604,135.877 C211.94,143.143 208.164,149.294 203.272,154.329 C198.378,159.368 192.48,163.252 185.574,165.984 C178.668,168.715 170.897,170.085 162.263,170.085 C152.908,170.085 144.636,169.439 137.442,168.143 C130.246,166.848 124.347,165.555 119.744,164.258 L119.744,3.459 L139.817,0.007 L139.817,60.225 L139.817,60.225 Z M139.817,150.014 C141.831,150.589 144.673,151.128 148.343,151.63 C152.012,152.137 156.577,152.387 162.048,152.387 C172.84,152.387 181.473,148.825 187.947,141.703 C194.423,134.579 197.66,124.473 197.66,111.376 C197.66,105.625 197.084,100.229 195.933,95.189 C194.78,90.154 192.912,85.801 190.322,82.131 C187.732,78.461 184.386,75.584 180.285,73.496 C176.184,71.412 171.254,70.367 165.501,70.367 C160.03,70.367 154.995,71.305 150.393,73.173 C145.786,75.045 142.262,76.988 139.817,79 L139.817,150.014 L139.817,150.014 L139.817,150.014 Z" id="Shape" fill="#FFFFFF"></path>
                <path d="M330.613,164.257 C326.007,165.41 319.929,166.632 312.376,167.926 C304.82,169.223 296.08,169.868 286.151,169.868 C277.517,169.868 270.251,168.607 264.351,166.094 C258.449,163.577 253.701,160.014 250.106,155.408 C246.507,150.804 243.918,145.371 242.336,139.111 C240.751,132.851 239.961,125.913 239.961,118.284 L239.961,55.262 L260.033,55.262 L260.033,113.969 C260.033,127.641 262.191,137.424 266.509,143.323 C270.824,149.225 278.09,152.174 288.308,152.174 C290.466,152.174 292.696,152.103 294.999,151.956 C297.299,151.815 299.457,151.633 301.474,151.417 C303.487,151.201 305.322,150.985 306.978,150.771 C308.63,150.556 309.818,150.306 310.54,150.017 L310.54,55.262 L330.612,55.262 L330.613,164.257 L330.613,164.257 L330.613,164.257 Z" id="Shape" fill="#FFFFFF"></path>
                <path d="M359.531,58.499 C364.135,57.348 370.249,56.124 377.879,54.828 C385.504,53.534 394.28,52.887 404.208,52.887 C413.13,52.887 420.538,54.148 426.44,56.663 C432.337,59.183 437.049,62.706 440.577,67.239 C444.1,71.772 446.583,77.206 448.024,83.535 C449.46,89.868 450.182,96.847 450.182,104.473 L450.182,167.495 L430.108,167.495 L430.108,108.787 C430.108,101.882 429.639,95.984 428.706,91.09 C427.768,86.2 426.227,82.241 424.065,79.22 C421.907,76.197 419.028,74.004 415.432,72.636 C411.831,71.269 407.37,70.585 402.051,70.585 C399.891,70.585 397.657,70.659 395.36,70.801 C393.056,70.946 390.861,71.126 388.777,71.342 C386.688,71.557 384.817,71.811 383.167,72.097 C381.511,72.387 380.322,72.603 379.605,72.743 L379.605,167.494 L359.532,167.494 L359.532,58.499 L359.531,58.499 L359.531,58.499 Z" id="Shape" fill="#FFFFFF"></path>
                <path d="M496.585,55.262 L539.106,55.262 L539.106,72.097 L496.585,72.097 L496.585,123.896 C496.585,129.506 497.016,134.148 497.88,137.816 C498.743,141.488 500.038,144.366 501.766,146.451 C503.493,148.539 505.651,150.013 508.241,150.876 C510.831,151.739 513.852,152.172 517.305,152.172 C523.491,152.172 528.385,151.49 531.983,150.121 C535.577,148.755 538.026,147.784 539.321,147.208 L543.637,163.611 C541.62,164.619 538.059,165.915 532.952,167.495 C527.844,169.077 522.055,169.869 515.577,169.869 C507.95,169.869 501.657,168.898 496.692,166.956 C491.727,165.014 487.735,162.1 484.713,158.215 C481.692,154.329 479.567,149.547 478.347,143.861 C477.121,138.179 476.511,131.597 476.511,124.113 L476.511,23.965 L496.584,20.512 L496.585,55.262 L496.585,55.262 L496.585,55.262 Z" id="Shape" fill="#FFFFFF"></path>
                <path d="M648.316,164.257 C643.709,165.41 637.63,166.632 630.078,167.926 C622.523,169.223 613.783,169.868 603.853,169.868 C595.22,169.868 587.953,168.607 582.054,166.094 C576.152,163.577 571.404,160.014 567.808,155.408 C564.209,150.804 561.62,145.371 560.037,139.111 C558.451,132.851 557.662,125.913 557.662,118.284 L557.662,55.262 L577.736,55.262 L577.736,113.969 C577.736,127.641 579.894,137.424 584.211,143.323 C588.527,149.225 595.791,152.174 606.011,152.174 C608.168,152.174 610.398,152.103 612.701,151.956 C615,151.815 617.16,151.633 619.177,151.417 C621.191,151.201 623.025,150.985 624.681,150.771 C626.332,150.556 627.521,150.306 628.242,150.017 L628.242,55.262 L648.316,55.262 L648.316,164.257 L648.316,164.257 L648.316,164.257 Z" id="Shape" fill="#FFFFFF"></path>
            </g>
        </g>
    </g>
</svg>
